docs/.gitbook/assets/icon-wrench-screwdriver-16@dark.svg

<svg width="32" height="32" viewBox="0 0 16 16" fill="none" xmlns="http://www.w3.org/2000/svg">
<rect x="0" y="0" width="16" height="16" fill="#181c1f"/>
<path fill-rule="evenodd" clip-rule="evenodd" d="M11.9726 1.4261C11.448 0.901537 10.61 0.863521 10.0402 1.33843L8.92238 2.26992C7.92131 3.10415 7.4874 4.4267 7.77976 5.67827C7.73013 5.71244 7.68237 5.75061 7.63695 5.79279L1.44629 11.5413L1.95663 12.0909L1.44629 11.5413C0.885571 12.0619 0.86924 12.9441 1.4103 13.4851L2.52977 14.6046L3.0601 14.0743L2.52977 14.6046C3.07083 15.1457 3.95297 15.1293 4.47363 14.5686L10.2221 8.37795C10.2643 8.33252 10.3025 8.28477 10.3366 8.23514C11.5882 8.52751 12.9108 8.0936 13.745 7.09252L14.6765 5.97475C14.9408 5.65761 15.0142 5.27314 14.9902 4.95357C14.9668 4.64149 14.844 4.2975 14.5888 4.04234C14.3258 3.77936 13.9241 3.71416 13.5914 3.88049L12.8233 4.26454H12.0004C11.8623 4.26454 11.7504 4.15262 11.7504 4.01454V3.19159L12.1344 2.42348C12.3008 2.09084 12.2356 1.68908 11.9726 1.4261ZM8.46559 7.0703C8.60903 7.24539 8.76951 7.40586 8.94459 7.5493L3.48036 13.4339L2.58103 12.5345L8.46559 7.0703ZM10.0495 6.50303C10.1896 6.59615 10.3428 6.67145 10.506 6.72585C11.2574 6.97633 12.0856 6.74074 12.5927 6.13224L12.8992 5.76443L12.8823 5.76454H12.0004C11.0339 5.76454 10.2504 4.98104 10.2504 4.01454V3.13258L10.2505 3.11572L9.88266 3.42225C9.27417 3.92932 9.03858 4.75747 9.28906 5.5089C9.34345 5.67207 9.41876 5.82527 9.51188 5.96538L10.0495 6.50303ZM4.00594 2.61929L5.72568 4.30081C6.02184 4.59039 6.49669 4.58506 6.78627 4.28889C7.07586 3.99272 7.07052 3.51788 6.77435 3.2283L4.87786 1.37395C4.38817 0.89514 3.60436 0.899544 3.12008 1.38383L1.36929 3.13462C0.885008 3.6189 0.880607 4.40271 1.35942 4.8924L3.21376 6.78889C3.50335 7.08506 3.97819 7.09039 4.27436 6.80081C4.57052 6.51122 4.57586 6.03638 4.28627 5.74021L2.60475 4.02048L4.00594 2.61929ZM10.0029 9.97267C10.2958 9.67977 10.7707 9.67977 11.0636 9.97267L12.9883 11.8974C13.0168 11.9081 13.0454 11.9206 13.0739 11.9348L13.6576 12.2267C13.9006 12.3482 14.1119 12.5246 14.2749 12.7419L14.8781 13.5461L14.8781 13.5461C15.105 13.8487 15.0749 14.2721 14.8075 14.5395L14.5698 14.7773C14.3023 15.0447 13.8789 15.0748 13.5764 14.8479L13.5764 14.8478L12.7722 14.2447C12.5548 14.0817 12.3784 13.8703 12.2569 13.6273L11.9651 13.0436C11.9508 13.0151 11.9384 12.9866 11.9276 12.958L10.0029 11.0333C9.71003 10.7404 9.71003 10.2656 10.0029 9.97267Z" fill="#fff"/>
</svg>

<svg xmlns="http://www.w3.org/2000/svg" width="32" height="32" fill="none" viewBox="0 0 16 16"><path fill="#181c1f" d="M0 0h16v16H0z"/><path fill="#fff" fill-rule="evenodd" d="M11.973 1.426a1.434 1.434 0 0 0-1.933-.088l-1.118.932A3.42 3.42 0 0 0 7.78 5.678a1 1 0 0 0-.143.115l-6.19 5.748.51.55-.51-.55a1.35 1.35 0 0 0-.037 1.944l1.12 1.12.53-.53-.53.53a1.35 1.35 0 0 0 1.944-.036l5.748-6.191a1 1 0 0 0 .115-.143 3.42 3.42 0 0 0 3.408-1.142l.932-1.118c.264-.317.337-.702.313-1.021a1.45 1.45 0 0 0-.401-.912.86.86 0 0 0-.998-.162l-.768.385H12a.25.25 0 0 1-.25-.25v-.823l.384-.769a.86.86 0 0 0-.161-.997M8.466 7.07q.216.263.479.48L3.48 13.433l-.899-.9zm1.584-.567a1.923 1.923 0 0 0 2.543-.37l.306-.369H12a1.75 1.75 0 0 1-1.75-1.75v-.898l-.367.306a1.924 1.924 0 0 0-.371 2.543zM4.006 2.619l1.72 1.682a.75.75 0 1 0 1.048-1.073L4.878 1.374a1.25 1.25 0 0 0-1.758.01l-1.75 1.75a1.25 1.25 0 0 0-.01 1.758L3.213 6.79a.75.75 0 1 0 1.073-1.05L2.605 4.02zm5.997 7.354a.75.75 0 0 1 1.06 0l1.925 1.924q.043.017.086.038l.584.292c.243.121.454.298.617.515l.603.804a.76.76 0 0 1-.07.994l-.238.237a.76.76 0 0 1-.994.07l-.804-.602a1.75 1.75 0 0 1-.515-.618l-.292-.583a1 1 0 0 1-.037-.086l-1.925-1.925a.75.75 0 0 1 0-1.06" clip-rule="evenodd"/></svg>
